src/banks/bank_of_ireland.svg

<svg width="256" height="256" viewBox="0 0 256 256" fill="none" xmlns="http://www.w3.org/2000/svg">
<path d="M0 0H256V256H0V0Z" fill="url(#paint0_linear)"/>
<path d="M128.005 96.2889C131.135 78.4961 208.297 76.0302 208.297 57.8435C208.297 57.3886 208.685 57 209.155 57C209.642 57 209.999 57.3886 209.999 57.8435V77.1091C209.999 99.995 132.4 97.0687 128.719 119.036C128.572 119.527 128.476 119.91 128.005 119.91C127.535 119.91 127.438 119.527 127.308 119.036C123.611 97.0687 46 99.995 46 77.1091V57.8435C46 57.3886 46.3849 57 46.8608 57C47.3312 57 47.7187 57.3886 47.7187 57.8435C47.7187 76.0302 124.875 78.4961 128.005 96.2889Z" fill="white"/>
<path d="M128.005 135.422C131.135 117.607 208.297 115.169 208.297 96.9791C208.297 96.5048 208.685 96.125 209.155 96.125C209.642 96.125 209.999 96.5048 209.999 96.9791V116.22C209.999 139.156 132.4 136.202 128.719 158.145C128.572 158.649 128.476 159.018 128.005 159.018C127.535 159.018 127.438 158.649 127.308 158.145C123.611 136.202 46 139.156 46 116.22V96.9791C46 96.5048 46.3849 96.125 46.8608 96.125C47.3312 96.125 47.7187 96.5048 47.7187 96.9791C47.7187 115.169 124.875 117.607 128.005 135.422Z" fill="white"/>
<path d="M128.005 175.526C131.135 157.711 208.297 155.284 208.297 137.075C208.297 136.62 208.685 136.234 209.155 136.234C209.642 136.234 209.999 136.62 209.999 137.075V156.324C209.999 179.232 132.4 176.283 128.719 198.265C128.572 198.758 128.476 199.133 128.005 199.133C127.535 199.133 127.438 198.758 127.308 198.265C123.611 176.283 46 179.232 46 156.324V137.075C46 136.62 46.3849 136.234 46.8608 136.234C47.3312 136.234 47.7187 136.62 47.7187 137.075C47.7187 155.284 124.875 157.711 128.005 175.526Z" fill="white"/>
<defs>
<linearGradient id="paint0_linear" x1="128" y1="0" x2="128" y2="256" gradientUnits="userSpaceOnUse">
<stop stop-color="#1D4A6E"/>
<stop offset="1" stop-color="#337998"/>
</linearGradient>
</defs>
</svg>

<svg xmlns="http://www.w3.org/2000/svg" viewBox="0 0 256 256"><path fill="url(#paint0_linear)" d="M0 0h256v256H0z"/><path fill="#fff" d="M128.005 96.289c3.13-17.793 80.292-20.259 80.292-38.445a.86.86 0 0 1 .858-.844c.487 0 .844.389.844.843V77.11c0 22.886-77.599 19.96-81.28 41.927-.147.491-.243.874-.714.874-.47 0-.567-.383-.697-.874C123.611 97.069 46 99.995 46 77.109V57.844a.86.86 0 0 1 1.719 0c0 18.186 77.156 20.652 80.286 38.445m0 39.133c3.13-17.815 80.292-20.253 80.292-38.443 0-.474.388-.854.858-.854.487 0 .844.38.844.854v19.241c0 22.936-77.599 19.982-81.28 41.925-.147.504-.243.873-.714.873-.47 0-.567-.369-.697-.873C123.611 136.202 46 139.156 46 116.22V96.98c0-.475.385-.855.86-.855.471 0 .859.38.859.854 0 18.19 77.156 20.628 80.286 38.443m0 40.104c3.13-17.815 80.292-20.242 80.292-38.451 0-.455.388-.841.858-.841.487 0 .844.386.844.841v19.249c0 22.908-77.599 19.959-81.28 41.941-.147.493-.243.868-.714.868-.47 0-.567-.375-.697-.868C123.611 176.283 46 179.232 46 156.324v-19.249c0-.455.385-.841.86-.841.471 0 .859.386.859.841 0 18.209 77.156 20.636 80.286 38.451"/><defs><linearGradient id="paint0_linear" x1="128" x2="128" y1="0" y2="256" gradientUnits="userSpaceOnUse"><stop stop-color="#1D4A6E"/><stop offset="1" stop-color="#337998"/></linearGradient></defs></svg>
